Landie/img/intro/intro-01.svg

<svg width="480" height="317" viewBox="0 0 480 317" fill="none" xmlns="http://www.w3.org/2000/svg">
<path d="M99.0802 137.824C74.7797 137.935 55 138.292 55 138.292C55 138.292 78.5112 107.386 98.992 118.836C119.473 130.287 143 137.889 143 137.889C143 137.889 123.381 137.713 99.0802 137.824Z" fill="#F2F2F2"/>
<path d="M371 147.292C373.761 147.292 376 145.053 376 142.292C376 139.53 373.761 137.292 371 137.292C368.239 137.292 366 139.53 366 142.292C366 145.053 368.239 147.292 371 147.292Z" fill="#FF6584"/>
<path d="M333.99 221.606L371.977 177.985L373.149 179.006L335.162 222.627L333.99 221.606Z" fill="#3F3D56"/>
<path d="M373 186.292C377.418 186.292 381 182.71 381 178.292C381 173.873 377.418 170.292 373 170.292C368.582 170.292 365 173.873 365 178.292C365 182.71 368.582 186.292 373 186.292Z" fill="#3F3D56"/>
<path d="M349.286 205.292C349.286 205.292 364.646 185.719 345 172.292L349.286 205.292Z" fill="#3F3D56"/>
<path d="M94.578 239.696C122.726 291.887 182.467 314.292 182.467 314.292C182.467 314.292 196.57 252.078 168.422 199.887C140.274 147.696 80.5332 125.292 80.5332 125.292C80.5332 125.292 66.4298 187.505 94.578 239.696Z" fill="#3F3D56"/>
<path d="M113.621 222.752C164.431 253.408 184 314.3 184 314.3C184 314.3 121.189 325.488 70.3788 294.832C19.5686 264.175 0 203.284 0 203.284C0 203.284 62.811 192.095 113.621 222.752Z" fill="#111B47"/>
<path d="M315.194 223.022C264.108 253.259 244 314.042 244 314.042C244 314.042 306.719 325.799 357.806 295.562C408.892 265.324 429 204.542 429 204.542C429 204.542 366.281 192.784 315.194 223.022Z" fill="#3F3D56"/>
<path d="M333.739 241.512C305.134 293.427 245.207 315.292 245.207 315.292C245.207 315.292 231.657 252.986 260.261 201.071C288.866 149.156 348.793 127.292 348.793 127.292C348.793 127.292 362.343 189.598 333.739 241.512Z" fill="#111B47"/>
<path d="M229.881 99.3318C223.866 93.8891 223.024 84.7425 227.944 78.2917C227.63 78.5864 227.323 78.8923 227.029 79.2175C221.25 85.6111 221.747 95.4804 228.138 101.261C234.528 107.042 244.393 106.545 250.171 100.152C250.465 99.8265 250.739 99.4902 251 99.148C245.079 104.693 235.898 104.773 229.881 99.3318Z" fill="#2F2E41"/>
<path d="M215.5 110.292C233.449 110.292 248 95.741 248 77.7917C248 59.8425 233.449 45.2917 215.5 45.2917C197.551 45.2917 183 59.8425 183 77.7917C183 95.741 197.551 110.292 215.5 110.292Z" fill="#2F2E41"/>
<path d="M206.238 119.323L207.212 116.817L189.476 131.657L168.038 143.606C168.038 143.606 157.123 101.977 156.344 101.207C155.564 100.436 141.532 71.1415 135.295 85.0177C129.058 98.8939 147.378 106.988 147.378 106.988C147.378 106.988 147.963 157.675 166.673 157.29C185.384 156.904 208.576 140.137 208.966 138.595C209.356 137.053 206.238 119.323 206.238 119.323Z" fill="#FFB8B8"/>
<path d="M211.5 111.292C222.27 111.292 231 102.561 231 91.7917C231 81.0222 222.27 72.2917 211.5 72.2917C200.73 72.2917 192 81.0222 192 91.7917C192 102.561 200.73 111.292 211.5 111.292Z" fill="#FFB8B8"/>
<path d="M214.879 106.042C214.879 106.042 219.943 112.61 218.385 113.383C216.827 114.155 207.868 114.542 202.414 121.11C196.961 127.678 209.036 144.292 209.036 144.292L255 113.769L236.303 107.587C236.303 107.587 223.449 100.633 223.838 93.2917L214.879 106.042Z" fill="#FFB8B8"/>
<path d="M277 316.292H225.37C222.445 294.954 221.093 275.4 221.093 275.4C221.093 275.4 220.339 295.069 218.331 316.292H152C161.403 253.451 205.978 185.307 205.978 185.307C205.978 185.307 206.366 176.025 207.529 174.477C208.693 172.934 200.941 172.547 197.451 160.947C195.323 153.866 197.236 149.232 199.055 146.701C199.679 145.789 200.447 144.984 201.329 144.317C201.329 144.317 202.105 136.2 201.329 135.039C201.23 134.887 201.995 134.354 203.41 133.543C204.589 132.863 206.219 131.99 208.169 130.986C219.338 125.207 240.957 114.983 248.363 111.5C249.987 110.731 250.931 110.292 250.931 110.292L264.107 114.931C274.568 118.408 274.568 140.452 274.568 140.452L273.976 141.351L258.164 165.251L248.992 179.121C251.319 180.663 246.67 190.333 246.67 190.333C246.67 190.333 253.295 199.83 258.682 214.327C261.729 222.395 263.807 230.795 264.872 239.352C265.551 244.897 265.685 250.495 265.27 256.066C263.834 274.694 270.218 297.334 277 316.292Z" fill="#2F2E41"/>
<path d="M263.951 116.726C263.091 116.237 262.063 116.157 261.139 116.506C260.216 116.855 259.492 117.599 259.161 118.538C258.007 121.746 256.838 128.434 257.255 142.339C258.021 167.912 258.404 185.348 258.404 185.348V224.095C258.404 224.095 241.551 261.292 250.744 261.292C259.936 261.292 266.447 231.844 266.447 231.844C266.447 231.844 274.874 187.286 272.192 179.536C272.192 179.536 279.752 126.001 263.951 116.726Z" fill="#FFB8B8"/>
<path d="M209.5 86.2917C218.613 86.2917 226 81.143 226 74.7917C226 68.4405 218.613 63.2917 209.5 63.2917C200.387 63.2917 193 68.4405 193 74.7917C193 81.143 200.387 86.2917 209.5 86.2917Z" fill="#2F2E41"/>
<path d="M236 65.2917C244.837 65.2917 252 58.1283 252 49.2917C252 40.4552 244.837 33.2917 236 33.2917C227.163 33.2917 220 40.4552 220 49.2917C220 58.1283 227.163 65.2917 236 65.2917Z" fill="#2F2E41"/>
<path d="M247 60.6764C238.682 60.6752 231.752 54.4219 231.06 46.2917C231.023 46.7233 231 47.1586 231 47.5994C231 56.2661 238.163 63.2917 247 63.2917C255.837 63.2917 263 56.2661 263 47.5994C263 47.1586 262.977 46.7234 262.94 46.2917C262.248 54.422 255.318 60.6752 247 60.6764Z" fill="#2F2E41"/>
<path d="M230.389 88.3101C231.118 88.1361 231.386 86.6451 230.988 84.9799C230.591 83.3147 229.678 82.1059 228.949 82.2799C228.22 82.4539 227.952 83.9449 228.35 85.6101C228.748 87.2753 229.661 88.4841 230.389 88.3101Z" fill="#FFB8B8"/>
<path d="M230 88.2917C230.552 88.2917 231 87.844 231 87.2917C231 86.7395 230.552 86.2917 230 86.2917C229.448 86.2917 229 86.7395 229 87.2917C229 87.844 229.448 88.2917 230 88.2917Z" fill="#F2F2F2"/>
<path fill-rule="evenodd" clip-rule="evenodd" d="M40 147.792C40 151.382 42.9101 154.292 46.5 154.292C50.0882 154.288 52.996 151.38 53 147.792C53 144.202 50.0899 141.292 46.5 141.292C42.9101 141.292 40 144.202 40 147.792ZM41.0833 147.792C41.0833 144.8 43.5085 142.375 46.5 142.375C49.4901 142.379 51.9132 144.802 51.9167 147.792C51.9167 150.783 49.4915 153.208 46.5 153.208C43.5085 153.208 41.0833 150.783 41.0833 147.792Z" fill="#3F3D56"/>
<path fill-rule="evenodd" clip-rule="evenodd" d="M304 108.292H318V94.2917H304V108.292ZM316.923 107.215H305.077V95.3687H316.923V107.215Z" fill="#3F3D56"/>
<path d="M436.08 180.824C411.78 180.935 392 181.292 392 181.292C392 181.292 415.511 150.386 435.992 161.836C456.473 173.287 480 180.889 480 180.889C480 180.889 460.381 180.713 436.08 180.824Z" fill="#F2F2F2"/>
<path d="M361.08 75.8243C336.78 75.9355 317 76.2917 317 76.2917C317 76.2917 340.511 45.3859 360.992 56.8363C381.473 68.2867 405 75.8893 405 75.8893C405 75.8893 385.381 75.7132 361.08 75.8243Z" fill="#F2F2F2"/>
<path d="M131.358 89.4247L75.2363 60.4528C71.4039 58.4744 69.8946 53.7516 71.8653 49.9041L85.0868 24.0909C85.4748 23.3333 86.1559 22.7692 86.9705 22.5307L131.205 9.58216C134.877 8.50712 138.746 10.5042 140.011 14.1284L154.545 55.7492C155.279 57.8505 155.12 60.1621 154.106 62.1423L141.865 86.0404C140.919 87.8881 139.28 89.2826 137.31 89.9173C135.339 90.5519 133.198 90.3747 131.358 89.4247Z" fill="#F2F2F2"/>
<path opacity="0.1" d="M133.347 79.8677L76.8055 55.6267C74.9836 54.6859 76.6919 56.132 77.6287 54.3024L84.7363 25.2917L154 61.0591L136.489 82.8026C135.553 84.6321 135.169 80.8085 133.347 79.8677Z" fill="black"/>
<path d="M86.1565 62.9324C82.136 60.8649 80.5526 55.9296 82.6201 51.9091L101.66 14.8822C103.727 10.8616 108.662 9.27829 112.683 11.3457L149.71 30.3854C153.73 32.4528 155.314 37.3881 153.246 41.4087L134.207 78.4356C132.139 82.4561 127.204 84.0395 123.183 81.9721L86.1565 62.9324Z" fill="#111B47"/>
<path opacity="0.1" d="M145 56.8773L130.458 85.2917L79 58.7057L93.542 30.2917L112.877 56.0794L145 56.8773Z" fill="black"/>
<path d="M112.252 57.9485L87.2877 24.8939C86.9738 24.4783 86.4677 24.2529 85.948 24.2973C85.4282 24.3416 84.9678 24.6495 84.7293 25.1122L70.5238 52.6678C69.9499 53.7811 69.8428 55.0763 70.2262 56.2684C70.6096 57.4605 71.4521 58.4519 72.5683 59.0244L134.46 90.7693C135.577 91.3418 136.875 91.4485 138.07 91.0661C139.265 90.6836 140.259 89.8433 140.833 88.7299L154.795 61.6464C155.086 61.0817 155.066 60.4074 154.741 59.8614C154.416 59.3153 153.833 58.9743 153.196 58.9586L112.252 57.9485Z" fill="#F2F2F2"/>
<path d="M107.412 14.6239L121.839 22.0423L120.79 24.0825L106.363 16.6641L107.412 14.6239Z" fill="#F2F2F2"/>
<path d="M102.425 21.4564L145.268 43.4869L144.669 44.6527L101.826 22.6222L102.425 21.4564Z" fill="#F2F2F2"/>
<path d="M100.402 25.391L143.245 47.4215L142.645 48.5873L99.8023 26.5568L100.402 25.391Z" fill="#F2F2F2"/>
<path d="M98.3786 29.3256L141.222 51.356L140.622 52.5218L97.7791 30.4914L98.3786 29.3256Z" fill="#F2F2F2"/>
<path d="M113.073 12.5735C114.773 9.26776 113.476 5.21241 110.176 3.51564C106.877 1.81887 102.824 3.1232 101.124 6.42896C99.4238 9.73471 100.721 13.7901 104.021 15.4868C107.32 17.1836 111.373 15.8793 113.073 12.5735Z" fill="white"/>
<path fill-rule="evenodd" clip-rule="evenodd" d="M99.8874 5.63415C101.908 1.70574 106.733 0.15869 110.664 2.17872C114.583 4.20779 116.128 9.0198 114.121 12.9494C112.1 16.8778 107.275 18.4248 103.345 16.4048C99.4142 14.3847 97.8664 9.56256 99.8874 5.63415ZM101.82 6.81341L103.592 12.3334L113.541 9.14892L113.044 7.60064L104.646 10.2935L103.369 6.31669L101.82 6.81341Z" fill="#57B894"/>
</svg>

<svg width="480" height="317" fill="none" xmlns="http://www.w3.org/2000/svg"><path d="M99.08 137.824c-24.3.111-44.08.468-44.08.468s23.511-30.906 43.992-19.456C119.473 130.287 143 137.889 143 137.889s-19.619-.176-43.92-.065z" fill="#F2F2F2"/><path d="M371 147.292a5 5 0 10-.001-10.001 5 5 0 00.001 10.001z" fill="#FF6584"/><path d="M333.99 221.606l37.987-43.621 1.172 1.021-37.987 43.621-1.172-1.021z" fill="#3F3D56"/><path d="M373 186.292a8 8 0 100-16 8 8 0 000 16zm-23.714 19s15.36-19.573-4.286-33l4.286 33zM94.578 239.696c28.148 52.191 87.889 74.596 87.889 74.596s14.103-62.214-14.045-114.405-87.889-74.595-87.889-74.595-14.103 62.213 14.045 114.404z" fill="#3F3D56"/><path d="M113.621 222.752C164.431 253.408 184 314.3 184 314.3s-62.811 11.188-113.621-19.468C19.569 264.175 0 203.284 0 203.284s62.811-11.189 113.621 19.468z" fill="#111B47"/><path d="M315.194 223.022C264.108 253.259 244 314.042 244 314.042s62.719 11.757 113.806-18.48c51.086-30.238 71.194-91.02 71.194-91.02s-62.719-11.758-113.806 18.48z" fill="#3F3D56"/><path d="M333.739 241.512c-28.605 51.915-88.532 73.78-88.532 73.78s-13.55-62.306 15.054-114.221c28.605-51.915 88.532-73.779 88.532-73.779s13.55 62.306-15.054 114.22z" fill="#111B47"/><path d="M229.881 99.332c-6.015-5.443-6.857-14.59-1.937-21.04-.314.294-.621.6-.915.925-5.779 6.394-5.282 16.263 1.109 22.044 6.39 5.781 16.255 5.284 22.033-1.109.294-.326.568-.662.829-1.004-5.921 5.545-15.102 5.625-21.119.184z" fill="#2F2E41"/><path d="M215.5 110.292c17.949 0 32.5-14.551 32.5-32.5 0-17.95-14.551-32.5-32.5-32.5-17.949 0-32.5 14.55-32.5 32.5 0 17.949 14.551 32.5 32.5 32.5z" fill="#2F2E41"/><path d="M206.238 119.323l.974-2.506-17.736 14.84-21.438 11.949s-10.915-41.629-11.694-42.399c-.78-.771-14.812-30.066-21.049-16.19-6.237 13.877 12.083 21.971 12.083 21.971s.585 50.687 19.295 50.302c18.711-.386 41.903-17.153 42.293-18.695.39-1.542-2.728-19.272-2.728-19.272zm5.262-8.031c10.77 0 19.5-8.731 19.5-19.5 0-10.77-8.73-19.5-19.5-19.5s-19.5 8.73-19.5 19.5c0 10.769 8.73 19.5 19.5 19.5z" fill="#FFB8B8"/><path d="M214.879 106.042s5.064 6.568 3.506 7.341c-1.558.772-10.517 1.159-15.971 7.727-5.453 6.568 6.622 23.182 6.622 23.182L255 113.769l-18.697-6.182s-12.854-6.954-12.465-14.295l-8.959 12.75z" fill="#FFB8B8"/><path d="M277 316.292h-51.63c-2.925-21.338-4.277-40.892-4.277-40.892s-.754 19.669-2.762 40.892H152c9.403-62.841 53.978-130.985 53.978-130.985s.388-9.282 1.551-10.83c1.164-1.543-6.588-1.93-10.078-13.53-2.128-7.081-.215-11.715 1.604-14.246a10.236 10.236 0 012.274-2.384s.776-8.117 0-9.278c-.099-.152.666-.685 2.081-1.496 1.179-.68 2.809-1.553 4.759-2.557 11.169-5.779 32.788-16.003 40.194-19.486 1.624-.769 2.568-1.208 2.568-1.208l13.176 4.639c10.461 3.477 10.461 25.521 10.461 25.521l-.592.899-15.812 23.9-9.172 13.87c2.327 1.542-2.322 11.212-2.322 11.212s6.625 9.497 12.012 23.994a108.896 108.896 0 016.19 25.025 85.348 85.348 0 01.398 16.714c-1.436 18.628 4.948 41.268 11.73 60.226z" fill="#2F2E41"/><path d="M263.951 116.726a3.313 3.313 0 00-2.812-.22 3.364 3.364 0 00-1.978 2.032c-1.154 3.208-2.323 9.896-1.906 23.801a5971.358 5971.358 0 011.149 43.009v38.747s-16.853 37.197-7.66 37.197c9.192 0 15.703-29.448 15.703-29.448s8.427-44.558 5.745-52.308c0 0 7.56-53.535-8.241-62.81z" fill="#FFB8B8"/><path d="M209.5 86.292c9.113 0 16.5-5.149 16.5-11.5 0-6.352-7.387-11.5-16.5-11.5S193 68.44 193 74.792c0 6.351 7.387 11.5 16.5 11.5zm26.5-21c8.837 0 16-7.164 16-16 0-8.837-7.163-16-16-16s-16 7.163-16 16c0 8.836 7.163 16 16 16z" fill="#2F2E41"/><path d="M247 60.676c-8.318 0-15.248-6.254-15.94-14.384-.037.431-.06.867-.06 1.307 0 8.667 7.163 15.693 16 15.693s16-7.026 16-15.693c0-.44-.023-.876-.06-1.307-.692 8.13-7.622 14.383-15.94 14.384z" fill="#2F2E41"/><path d="M230.389 88.31c.729-.174.997-1.665.599-3.33-.397-1.665-1.31-2.874-2.039-2.7-.729.174-.997 1.665-.599 3.33s1.311 2.874 2.039 2.7z" fill="#FFB8B8"/><path d="M230 88.292a1 1 0 100-2 1 1 0 000 2z" fill="#F2F2F2"/><path fill-rule="evenodd" clip-rule="evenodd" d="M40 147.792a6.5 6.5 0 006.5 6.5 6.507 6.507 0 006.5-6.5 6.5 6.5 0 10-13 0zm1.083 0a5.417 5.417 0 015.417-5.417 5.424 5.424 0 015.417 5.417 5.417 5.417 0 01-10.834 0zM304 108.292h14v-14h-14v14zm12.923-1.077h-11.846V95.369h11.846v11.846z" fill="#3F3D56"/><path d="M436.08 180.824c-24.3.111-44.08.468-44.08.468s23.511-30.906 43.992-19.456C456.473 173.287 480 180.889 480 180.889s-19.619-.176-43.92-.065zm-75-105c-24.3.112-44.08.468-44.08.468s23.511-30.906 43.992-19.456C381.473 68.286 405 75.89 405 75.89s-19.619-.176-43.92-.065zM131.358 89.425L75.236 60.453c-3.832-1.979-5.341-6.701-3.37-10.549l13.22-25.813a3.094 3.094 0 011.885-1.56l44.234-12.949c3.672-1.075 7.541.922 8.806 4.546l14.534 41.621a8.14 8.14 0 01-.439 6.393L141.865 86.04a7.81 7.81 0 01-4.555 3.877 7.776 7.776 0 01-5.952-.492z" fill="#F2F2F2"/><path opacity=".1" d="M133.347 79.868L76.805 55.627c-1.821-.941-.113.505.824-1.325l7.107-29.01L154 61.059l-17.511 21.744c-.936 1.83-1.32-1.995-3.142-2.935z" fill="#000"/><path d="M86.156 62.932A8.186 8.186 0 0182.62 51.91l19.04-37.027a8.185 8.185 0 0111.023-3.536l37.027 19.04a8.186 8.186 0 013.536 11.023l-19.039 37.027a8.187 8.187 0 01-11.024 3.536l-37.027-19.04z" fill="#111B47"/><path opacity=".1" d="M145 56.877l-14.542 28.415L79 58.706l14.542-28.414 19.335 25.787 32.123.798z" fill="#000"/><path d="M112.252 57.949L87.288 24.894a1.517 1.517 0 00-2.559.218L70.524 52.668a4.71 4.71 0 00-.298 3.6 4.724 4.724 0 002.342 2.756L134.46 90.77a4.744 4.744 0 003.61.297 4.73 4.73 0 002.763-2.336l13.962-27.084a1.84 1.84 0 00-.054-1.785 1.85 1.85 0 00-1.545-.902l-40.944-1.01zm-4.84-43.325l14.427 7.418-1.049 2.04-14.427-7.418 1.049-2.04zm-4.987 6.832l42.843 22.03-.599 1.167-42.843-22.03.599-1.167zm-2.023 3.935l42.843 22.03-.6 1.166-42.843-22.03.6-1.166z" fill="#F2F2F2"/><path d="M98.379 29.326l42.843 22.03-.6 1.166-42.843-22.03.6-1.166z" fill="#F2F2F2"/><path d="M113.073 12.573c1.7-3.305.403-7.36-2.897-9.057-3.299-1.697-7.352-.393-9.052 2.913-1.7 3.306-.403 7.361 2.897 9.058 3.299 1.697 7.352.392 9.052-2.914z" fill="#fff"/><path fill-rule="evenodd" clip-rule="evenodd" d="M99.887 5.634a8.005 8.005 0 0110.777-3.455 8.02 8.02 0 013.457 10.77 8.004 8.004 0 01-10.776 3.456 7.996 7.996 0 01-3.458-10.77zm1.933 1.18l1.772 5.52 9.949-3.185-.497-1.548-8.398 2.692-1.277-3.976-1.549.496z" fill="#57B894"/></svg>
